public/images/country/country-07.svg

<svg width="21" height="21" viewBox="0 0 21 21" fill="none" xmlns="http://www.w3.org/2000/svg">
<g clip-path="url(#clip0_1589_35174)">
<path d="M14.353 1.12211C13.2697 0.720161 12.0979 0.500122 10.8747 0.500122C9.65153 0.500122 8.47981 0.720161 7.39649 1.12211L6.52692 10.5001L7.39649 19.8781C8.47981 20.2801 9.65153 20.5001 10.8747 20.5001C12.0979 20.5001 13.2697 20.2801 14.353 19.8781L15.2225 10.5001L14.353 1.12211Z" fill="#FFDA44"/>
<path d="M20.8749 10.4994C20.8749 6.19982 18.1612 2.53435 14.3531 1.12146V19.8775C18.1612 18.4645 20.8749 14.7991 20.8749 10.4994Z" fill="#D80027"/>
<path d="M0.874664 10.5C0.874664 14.7997 3.58841 18.4651 7.39642 19.8781V1.12207C3.58841 2.53496 0.874664 6.20043 0.874664 10.5Z" fill="black"/>
</g>
<defs>
<clipPath id="clip0_1589_35174">
<rect x="0.875" y="0.5" width="20" height="20" rx="10" fill="white"/>
</clipPath>
</defs>
</svg>

<svg xmlns="http://www.w3.org/2000/svg" width="21" height="21" fill="none" viewBox="0 0 21 21"><g clip-path="url(#a)"><path fill="#ffda44" d="M14.353 1.122A10 10 0 0 0 10.875.5c-1.223 0-2.395.22-3.479.622l-.87 9.378.87 9.378a10 10 0 0 0 3.479.622c1.223 0 2.395-.22 3.478-.622l.87-9.378z"/><path fill="#d80027" d="M20.875 10.5c0-4.3-2.714-7.966-6.522-9.379v18.757a10 10 0 0 0 6.522-9.379"/><path fill="#000" d="M.875 10.5c0 4.3 2.713 7.965 6.521 9.378V1.122A10 10 0 0 0 .875 10.5"/></g><defs><clipPath id="a"><rect width="20" height="20" x=".875" y=".5" fill="#fff" rx="10"/></clipPath></defs></svg>
